X:1
T:They Are At Rest
T:Elgar, Edward
T:Cardinal Newman
T:They Are At Rest
T:Copyright © 2015 by CPDL. This edition can be fully distributed, duplicated, performed, and recorded 
T:Copyright © 2015 by CPDL. This edition can be fully distributed, duplicated, performed, and recorded 
T:Copyright © 2015 by CPDL. This edition can be fully distributed, duplicated, performed, and recorded 
T:Copyright © 2015 by CPDL. This edition can be fully distributed, duplicated, performed, and recorded 
T:Copyright © 2015 by CPDL. This edition can be fully distributed, duplicated, performed, and recorded 
T:Copyright © 2015 by CPDL. This edition can be fully distributed, duplicated, performed, and recorded 
T:Copyright © 2015 by CPDL. This edition can be fully distributed, duplicated, performed, and recorded 
C:Elgar, Edward
Z:Cardinal Newman
Z:Copyright © 2015 by CPDL. This edition can be fully distributed, duplicated, performed, and recorded
%%score [ 1 ( 2 3 ) ( 4 5 ) 6 ]
L:1/8
Q:1/4=60
M:4/4
K:D
V:1 treble nm="Soprano"
V:2 treble nm="Alto"
V:3 treble 
V:4 treble transpose=-12 nm="Tenor"
V:5 treble transpose=-12 
V:6 bass nm="Bass"
V:1
!p!"^Lento e sostenuto."!<(! F2 G!<)!G!>(! F4-!>)! |!pp! F"^ten."B"^rit." F>E G2- G z || %2
w: They are at rest,|* they are at rest *|
"^a tempo" z!p! GGG F3!<)!!<(! F | !tenuto!B>A G"^dim."G F2 z"^cresc." F | c>B AF A3"^dim." ^G | %5
w: We may not stir the|heav'n of their re- pose By|rude in\- vo\- king voice, or|
 (d3 c c)!<(!A!<)! e2- | ed"^dim. e rit." c>B!>)!!>(! E4 | %7
w: prayer ad- drest In way-|* ward- ness to those|
"^dolciss."!pp!"^Tranquillo." (F2 BF F2 E2 | A>)!<(!A!<)! dA (A2!>)!!>(! G2- | %9
w: Who in the moun- tain|grots of E- den lie, _|
 G)"^espress."F!<(!B!<)!F!>(! F2!>)! E2 |!p! (G>F-!>(! F)!>)!F/!pp!D/ (A2 B2 | F6) E2 | %12
w: _ And hear the four- fold|riv- er _ as it mur- *|* murs|
 !fermata![DA]4 ||!mp!"^tempo." z!mf! B!>(!F!>)!E | D2!p! G2- GG/G/ GF | B>A GG F3 z | %16
w: by.|And sooth- ing|sounds Blend _ with the neigh- b'ring|wa- ters as they glide;|
 cc/B/ A>F A3 ^G |"^cresc." (d3 c c)!<(!A!<)! e2- |!f! ed c>B"^dim." E3!p! ((G | %19
w: Post- ed a- long the haunt- ed|gar- den's bounds, An- gel-|* ic forms a- bide, E-|
"^cantabile.""^Tranquillo." G)F B>F F>E E2- | E)!<(!(A"^cresc."d!<)!A!>(! A2!>)! (G2 | %21
w: * cho- ing as words of watch,|_ o'er lawn and grove _|
 G))F!<(!BF!<)! F>E"^dim." EE |!p! (G F2) D!pp! (A2 B2 | F6) E2 | !fermata![DA]4 z!p! BFE | %25
w: _ The ver- ses of that hymn which|Se- * raphs chant _|_ a-|bove. They are at|
 G4- G!pp!!breath!!tenuto!F"^dim. e rit."!tenuto!F!tenuto!C | !fermata!C8 || %27
w: rest, * they are at|rest.|
V:2
!p!!<(! C2 D!<)!C!>(! D4-!>)! |!pp! D"^ten."D"^rit." C>C D2- D z || %2
w: They are at rest,|* they are at rest; *|
"^a tempo" z!p! DDD D3!<)!!<(! D | !tenuto!D>D D"^dim."C D"^cresc."F F2- | F>F FC D3"^dim." D | %5
w: We may not stir the|heav'n\- of their re- pose By rude|_ in- vo- king voice, or|
 [E^G]3 [EA] [EA]!<(!A!<)! [EA]2- | [EA][FA]"^dim. e rit." [C=G]>[DF] E>E!>(! E!>)![A,G] | %7
w: prayer ad- drest In way-|* ward- ness to those Who in the|
!pp! (([A,F]2 B,))B, B,3!<)!!<(! E |!>(! (E!>)! D2) D D3 C | CD B,>B,"^dim." B, B,2 C | %10
w: moun- * tain grots of|E- * den lie, And|hear the four- fold riv- er, the|
!p! D>F!>(! (E/D/!>)!C/B,/)!pp! (D2 B,2 | C2 D2 G,2) B,2 | !fermata!A,4 || z!mf! D!>(!C!>)!C | %14
w: four- fold riv- er as it mur- *|* * * murs|by.|And sooth- ing|
 B,2!p! D2- DD/D/ DD | D>D DC D2 !tenuto!F2- | FF/F/ F>C D3 D | %17
w: sounds Blend _ with the neigh- b'ring|wa- ters as they glide; Post-|* ed a- long the haunt- ed|
"^cresc." [E^G]3 [EA] [EA]!<(!A!<)! [EA]2- |!f! [EA][FA] [C=G]>[DF]"^dim." E2!pp! A,2- | %19
w: gar- den's bounds, An- gel-|* lic forms a- bide, E-|
 A,>B, B,2- B, z z!<(! E- | E/!<)!!>(!D/!>)!"^cresc." D2 D D>D D!<)!!<(!C | %21
w: * cho- ing _ e-|* cho- ing o'er lawn and grove, o'er|
 CD!>(! B,>!>)!B, B,B,B,C |!p! D>F (E/D/)(C/B,/)!pp! (D2 B,2 | C2 D2 G,2) B,2 | %24
w: lawn and grove The ver- ses of that|hymn which Se- * raphs _ chant _|_ _ _ a-|
 !fermata!A,4 z!p! DCC | D4- D!pp!!breath!!tenuto!D"^dim. e rit."!tenuto!C!tenuto!B, | %26
w: bove. They are at|rest, * they are at|
 !fermata!^A,8 || %27
w: rest.|
V:3
 x8 | x8 || x8 | x8 | x8 | x4 x A x2 | x8 | x8 | x8 | x8 | x8 | x8 | x4 || x4 | x8 | x8 | x8 | %17
 x4 x A x2 | x8 | x8 | x8 | x8 | x8 | x8 | x8 | x8 | x8 || %27
V:4
!p! ^A2!<(! BA!<)!!>(! B4!>)! |!pp! B"^ten."F"^rit." =A>A D2- D z || %2
w: They are at rest,|* they are at rest; *|
"^a tempo" z!p! BBB B3!<)!!<(! B | !tenuto!B>F B"^dim."A A"^cresc."F (F2- | %4
w: We may not stir the|heav'n of their re- pose By rude|
!<(! F2!<)! c>)A!>(! !>!F>E!>)! EE |"^dim." [EB]3 [Ec] [Ec]3!<)!!<(! A | %6
w: _ _ in- vo- king voice, or|prayer ad- drest In|
 [Ac][Ad]"^dim. e rit." A>A A>A!>(! A!>)!A |!pp! (A2 F)F (G4 | F)d A>"^cres,"^A B3 A | %9
w: way- ward- ness to those Who in the|moun- * tain grots|_ of E- den lie, And|
 ^AB F>G"^dim." G G2 G |!p! (Gd/)c/!>(! (c/B/!>)!A/G/)!pp! (F4- | F4 B2) G2 | !fermata!F4 || %13
w: hear the four- fold riv- er, the|four- * fold riv- er as it mur-|* * murs|by.|
 z!mf! F!>(!A!>)!G | F2!p! B2- BG/B/ BB | B>F BA A2 (!tenuto!F2- | %16
w: And sooth- ing|sounds Blend _ with the neigh- b'ring|wa- ters as they glide; Post-|
!<(! F2 c)!<)!c/A/!>(! F>E!>)! EE |"^cresc." E3 c c!<(!A!<)! [Ac]2- | %18
w: * * ed a- long the haunt- ed|gar\- den's bounds, An- gel-|
!f! [Ac][Ad] A2- A"^dim."A A>A |!pp! A>F F2 [GB]>[GB] [GB]!<(!(G | %20
w: * lic forms, _ an- gel- ic|forms a- bide, E- cho- ing, e-|
 F)!<)!!>(!d!>)!"^cresc." A>^A B>B B!<)!!<(!A | ^AB!>(! F>!>)!B G"^dim."GG=A | %22
w: * cho- ing o'er lawn and grove, o'er|lawn and grove The ver- ses of that|
!p! d>c (c/B/)(A/G/)!pp! (F4- | F4 B2) G2 | !fermata!F4 z!p! FAG | %25
w: hymn which Se- * raphs _ chant|_ _ a-|bove. They are at|
 D4- D!pp!"^dim. e rit."!breath!!tenuto!D!tenuto!A!tenuto!^G | !fermata!F8 || %27
w: rest, * they are at|rest.|
V:5
 x8 | x8 || x8 | x8 | x8 | x4 x2 x A | x8 | x8 | x8 | x8 | x8 | x8 | x4 || x4 | x8 | x8 | x8 | %17
 B3 E EA x2 | x8 | x8 | x8 | x8 | x8 | x8 | x8 | x8 | x8 || %27
V:6
!p!!<(! F,2 E,!<)!E,!>(! B,,4-!>)! |!pp! B,,"^ten."B,,"^rit." A,,>A,, !/-!B,,3- z || %2
w: They are at rest,|* they are at rest;|
"^a tempo" B,,3!p! B, B,B, B,>!<)!!<(!A, | !tenuto!G,>F, E,"^dim."E, D,2 z"^cresc." F, | %4
w: _ We may not stir the|heav'n of their re\- pose By|
 E,>D, C,C, B,,3 B,, |"^dim." (A,,3 A,, A,,)A,!<)!!<(! G,2- | %6
w: rude in\- vo\- king voice, or|prayer ad- drest In way-|
 G,F,"^dim. e rit." E,>D, C,>C,!>(! C,!>)!C, |!pp! D,3 D, C,3 C, | F,4 E,4 | %9
w: * ward- ness to those Who in the|moun- tain grots of|E- den|
 D,2 D,/D,D,/"^dim." C,3 A,, |!p! (B,,>A,,)!>(! !wedge!D,!>)!!wedge!D,!pp! (F,2 D,2 | %11
w: lie, And hear the four- fold|riv- er as it mur- *|
 A,,2 B,,2 C,2) C,2 | !fermata!D,4 || z!mf! B,,!>(!A,,!>)!A,, | B,,4 B,,B,,/B,,/ B,A, | %15
w: * * * murs|by.|And sooth- ing|sounds Blend with the neigh- b'ring|
 G,>F, E,E, D,3 z | E,E,/D,/ C,>C, B,,3 B,, |"^cresc." B,,3 A,, A,,!<(!A,!<)! G,2- | %18
w: wa- ters as they glide;|Post- ed a- long the haunt- ed|gar- den's bounds, An- gel-|
!f! G,F, E,>D,"^dim." C,2!pp! (C,2 | D,>)D, D,D, C,3 C, |"^cresc." F,3 F, E,3 E, | %21
w: * ic forms a- bide, E-|* cho- ing, as words of|watch, o'er lawn and|
 D,>!>(!D, D,D,!>)!"^dim." C,2 A,,2 |!p! B,,>A,, .D,.D,!pp! (F,2 D,2 | A,,2 B,,2 C,2) C,2 | %24
w: grove The ver- ses of that|hymn which Se- raphs chant _|_ _ _ a-|
 !fermata!D,4 z!p! B,,A,,A,, | B,,4- B,,!pp!"^dim. e rit."!breath!!tenuto!B,,!tenuto!C,!tenuto!C, | %26
w: bove. They are at|rest, * they are at|
 !fermata![F,,C,]8 || %27
w: rest.|

